Adwaita++-Dark/apps/16/yin-yang.svg

<svg height="16" viewBox="0 0 16 16" width="16" xmlns="http://www.w3.org/2000/svg">
  <path d="m7.675 0c-2 0-3.835.81-5.275 2.25-1.518 1.518-2.4 3.508-2.4 5.75 0 4.4 3.432 8 7.75 8h.25c4.4 0 8-3.6 8-8s-3.6-8-8-8zm.075 1.6c1.759 0 4.25.96 4.25 3.2 0 2.082-1.6 3.04-3.6 3.2-1.6.082-3.125.89-3.925 2.25-.641 1.119-.565 2.144-.325 3.024-1.61-1.277-2.548-3.219-2.55-5.274 0-1.76.644-3.45 1.925-4.65 1.119-1.118 2.544-1.75 4.225-1.75zm.25 1.6c-.884 0-1.6.716-1.6 1.6s.716 1.6 1.6 1.6 1.6-.716 1.6-1.6-.716-1.6-1.6-1.6zm0 7.2c.882 0 1.6.718 1.6 1.6s-.718 1.6-1.6 1.6-1.6-.718-1.6-1.6.718-1.6 1.6-1.6z" fill="#E6DDFF"/>
</svg>

<svg xmlns="http://www.w3.org/2000/svg" width="16" height="16" viewBox="0 0 16 16">
 <defs>
  <style id="current-color-scheme" type="text/css">
   .ColorScheme-Text { color: #E6DDFF; } .ColorScheme-Highlight { color: #5294e2; }
  </style>
 </defs>
 <g fill="currentColor" class="ColorScheme-Text">
  <path d="M 7.675 0 C 5.675 0 3.84 0.81 2.4 2.25 C 0.882 3.768 0 5.758 0 8 C 0 12.4 3.432 16 7.75 16 L 8 16 C 12.4 16 16 12.4 16 8 C 16 3.6 12.4 0 8 0 L 7.675 0 Z M 7.75 1.6 C 9.509 1.6 12 2.56 12 4.8 C 12 6.882 10.4 7.84 8.4 8 C 6.8 8.082 5.275 8.89 4.475 10.25 C 3.834 11.369 3.91 12.394 4.15 13.274 C 2.54 11.997 1.602 10.055 1.6 8 C 1.6 6.24 2.244 4.55 3.525 3.35 C 4.644 2.232 6.069 1.6 7.75 1.6 Z M 8 3.2 C 7.116 3.2 6.4 3.916 6.4 4.8 C 6.4 5.684 7.116 6.4 8 6.4 C 8.884 6.4 9.6 5.684 9.6 4.8 C 9.6 3.916 8.884 3.2 8 3.2 Z M 8 10.4 C 8.882 10.4 9.6 11.118 9.6 12 C 9.6 12.882 8.882 13.6 8 13.6 C 7.118 13.6 6.4 12.882 6.4 12 C 6.4 11.118 7.118 10.4 8 10.4 Z"/>
 </g>
</svg>
